X: 11930
T: Empty Cup, The
R: reel
M: 4/4
K: Gmajor
d2cB cABG|d2cA BGA2|d2cB cABG|Bdde fed2|
d2cB cABG|d2cA BGA2|d2cB cABG|Bdde fcd2|
fefg a2ag|agfe fcdc|dcBA cABG|Adde fefe|
fefg a2ag|agae fedc|dcBA cABA|Adde fed2|

